static/images/clients/svg/nudie.svg

<svg fill="none" height="24" viewBox="0 0 176 24" width="176" xmlns="http://www.w3.org/2000/svg" xmlns:xlink="http://www.w3.org/1999/xlink"><clipPath id="a"><path d="m0 0h175.636v24h-175.636z"/></clipPath><g clip-path="url(#a)"><path clip-rule="evenodd" d="m44.4649 11.6835h-1.5797l-.117 1.7841c0 3.8561 2.4573 6.6187 7.3133 8.2302l.5266-1.4388c-4.154-1.4389-6.2017-3.6835-6.2017-6.7914zm-6.7867.9208v5.9281h-1.6382c-2.6913-.8633-3.9785-2.3597-3.9785-4.4317 0-.6906.3511-1.2086.9361-1.7266.6436-.4029 1.2872-.6331 2.0478-.6331.351 0 .7605.2302 1.3456.7482l.8776.6907zm-4.037-9.84171c1.0531 1.15108 1.8722 2.47482 2.4573 3.85612.4095.92086.8191 2.41726 1.4041 4.48919l.117.3453-.117-.1151c-.8776-.7482-1.6381-1.0935-2.3987-1.0935-1.1702 0-2.2233.3453-3.1009 1.036-.9946.7482-1.4626 1.7266-1.4626 2.8777 0 2.8777 1.7552 4.8345 5.207 5.9856l.1171.0575h3.4518v-8.3453l-.234-1.036c-.5851-2.18701-1.0531-3.74096-1.4627-4.71938-.6435-1.4964-1.5211-2.93525-2.6912-4.25899zm8.3664.97842-.117 3.45323 1.5797.05756.117-3.39568zm-25.4503 9.55399c.3511 2.4172.7021 4.1438 1.1702 5.1223.819 1.669 2.0477 2.5323 3.8614 2.5323 1.7552 0 3.1008-.8057 4.0369-2.3597.5851-.9208 1.1702-2.5899 1.7552-4.8921l.4681-1.669-1.5212-.4029-.468 1.6691c-.5266 2.1295-1.0532 3.6259-1.5212 4.4316-.7021 1.0935-1.5797 1.6691-2.7498 1.6691-1.1116 0-1.9307-.5756-2.3988-1.7266-.4095-.8058-.7606-2.3597-1.0531-4.5468l-.351-2.3597-1.5212.2878zm-6.0846-10.01442c-1.05316.7482-1.98926 2.07194-2.80835 4.02877-.52656 1.15108-1.17013 3.05035-1.98922 5.69785-.40955 1.4388-.81909 2.705-1.22864 3.741l-1.17013-6.96403c-.81909-5.1223-1.40415-8.34532-1.75519-9.78417l-1.52117.28777c.292532 1.43885.877597 4.66187 1.69669 9.72663.81909 5.0647 1.40415 8.1727 1.69668 9.4388l.46806 1.8993.99461-1.669c.58506-.9785 1.40415-3.0504 2.39876-6.2734 1.28714-4.31657 2.45727-7.07916 3.4519-8.23024 1.0531 2.82014 1.5797 7.48204 1.5797 14.10074h1.5796c0-8-.7606-13.29499-2.2232-15.76981l-.4681-.7482zm100.5143 10.99282-2.341-.4604c.293-1.036.644-2.072.937-3.0504.409.9784.819 2.187 1.404 3.5108zm-12.3451-3.7986v1.7266c-.8776-.0575-2.0477-.1726-3.5104-.5179l-1.6967-.3454c.5851-.4028 1.4627-.6906 2.6913-.8633zm-2.6913-1.49638c-3.2764.46043-4.9146 1.78418-4.9146 3.85608 0 2.3022 1.2872 3.9137 3.8615 4.8346 1.4626.518 3.8029.9208 7.0205 1.151l.117-1.5539c-3.0421-.1727-5.2653-.518-6.611-1.036-1.8722-.6906-2.8083-1.7842-2.8083-3.3957 0-.518.234-.9784.7021-1.3813l-.234 1.3813 1.7552.4029c1.8137.4029 3.3933.5756 4.622.5756h.819v-4.89214h-4.2709zm-16.9669 13.29498c2.5743 0 4.6805-.518 6.3772-1.4964 1.9307-1.1511 2.9253-2.7051 2.9253-4.7194 0-1.9569-.234-4.3166-.8191-7.07918-.5265-2.76259-.7605-5.06475-.7605-6.79137h-1.5797c0 1.89928.234 4.20144.8191 7.07914.5265 2.76261.7606 5.06471.7606 6.79141 0 1.4964-.8191 2.6474-2.4573 3.5107-1.4627.7482-3.2179 1.1511-5.2656 1.1511-1.2286 0-2.3988-.4604-3.3349-1.4388-.819-.8058-1.4041-1.7842-1.8137-3.0504l-1.5211.4604c.5265 1.6691 1.4041 3.0504 2.6328 4.0288 1.2286 1.036 2.5743 1.554 4.0369 1.554zm-13.515-8.2878c-1.3456-3.0503-4.0954-4.6043-8.3664-4.6043-1.7552 0-2.8083 1.2086-3.2179 3.5683l-1.9892-.3453-.2925 1.4964 2.1647.4029-.0585.2302-.351 2.3022v4.7194h.7606l.585.1151c.4096.1727.8191.2878 1.1117.2878 1.2286 0 2.6913-.5756 4.2709-1.7266l1.2287-.8634-.8191-1.2661-1.3457.9784c-1.3456.9784-2.3987 1.4388-3.3348 1.4388l-.5266-.1726-.351-.1151v-3.0504l.351-2.3597v-.1727l7.4303.6907 1.5797.1151c.351 0 .5851-.1151.8191-.4029h.8191zm-2.6913-.1726-7.3133-.6331c.234-1.4964.8191-2.3022 1.6382-2.3022 3.1593 0 5.3241.9784 6.4942 2.9928zm93.4936-.9209c.468-.2878 1.345-.6907 2.633-1.0935l.643-.2303-.526-1.4388-.644.2302c-1.463.4604-2.457.9784-3.101 1.3813-1.053.7482-1.58 1.6691-1.58 2.7626 0 1.7842.82 3.1655 2.575 4.2014 1.521.9209 3.335 1.3813 5.441 1.3813v-1.5539c-1.697 0-3.16-.3453-4.33-.9784-1.404-.7482-2.047-1.7267-2.047-3.0504-.059-.6331.234-1.1511.936-1.6115zm-20.595 10.0719 1.171 1.036c1.93-2.0719 3.276-3.2806 4.154-3.5108.526-.1727.936-.4604 1.228-.9784.351-.518 1.112-2.0144 2.34-4.4892l.586-1.0935h-1.288c-2.749 0-4.973-.2303-6.669-.8058 1.228-1.2086 3.042-1.7842 5.382-1.7842l1.463.1151 1.112.1727.117-1.554-.995-.11507-1.755-.17266c-3.277 0-5.734 1.09353-7.372 3.22303l-.644.8058.995.4028c2.106.8058 4.505 1.2662 7.021 1.2662-1.112 2.2446-1.814 3.3957-2.048 3.5108-1.053.2878-2.633 1.6115-4.798 3.9712zm-19.014-.6906-.995-2.0144-2.047-4.1439 4.914.2302v-1.5539l-5.617-.2878c-1.053-2.4173-1.872-4.54677-2.398-6.33094l-.585-2.18705-.878 2.07194c-.761 1.72662-1.346 3.56835-1.814 5.41005l-1.872-.4604-.409 1.4964 1.93.4604c-.468 1.8993-.76 3.9137-.936 5.9281l1.58.1151c.175-2.0144.468-3.9137.877-5.6978l3.277.5755.175.0575c.702 1.4964 1.522 3.2231 2.458 5.0648l1.053 2.0144zm4.154-11.1079c1.053.4604 1.755 1.2662 2.165 2.4172.234.6907.468 1.9569.643 3.741.176 1.6116.293 2.7626.41 3.3957l.585 2.7626.936-2.6475c.585-1.5539 1.463-3.6259 2.691-6.1007l.527-1.0935.702-.3453c.585 1.4388 1.17 3.5108 1.696 6.2158l.469 2.4173 1.521-.3454-.468-2.4172c-.644-2.9928-1.288-5.4101-2.107-7.3094l-.292-.7482-2.691 1.3238-.761 1.5539-1.58 3.3957-.058-.2878c-.176-2.0144-.41-3.3957-.761-4.3165-.585-1.4389-1.579-2.4748-2.984-3.10794zm52.948 1.4964c.176.7482.234 1.8993.234 3.5108v.6906l-.234.4604-.292.3454c-3.628-.4605-5.5-1.6691-5.5-3.741 0-1.2087.585-2.3022 1.814-3.0504.819-.518 1.521-.6331 2.106-.4029.936.3453 1.58 1.0935 1.872 2.1871zm-1.17-3.68348c-1.17-.51799-2.399-.34533-3.627.46043-1.697 1.09355-2.575 2.58995-2.575 4.37415 0 3.0503 2.458 4.892 7.489 5.41l.761.0576.117-.7482.234-.4029c.409-.4604.643-.9784.643-1.3813v-.3453c0-2.0144-.117-3.4533-.351-4.3166-.468-1.4388-1.404-2.47479-2.691-3.10788z" fill="#282828" fill-rule="evenodd"/></g></svg>

<svg width="176" height="24" viewBox="0 0 176 24" fill="none" xmlns="http://www.w3.org/2000/svg">
<g clip-path="url(#clip0)">
<path fill-rule="evenodd" clip-rule="evenodd" d="M44.4649 11.6835H42.8852L42.7682 13.4676C42.7682 17.3237 45.2255 20.0863 50.0815 21.6978L50.6081 20.259C46.4541 18.8201 44.4064 16.5755 44.4064 13.4676L44.4649 11.6835ZM37.6782 12.6043V18.5324H36.04C33.3487 17.6691 32.0615 16.1727 32.0615 14.1007C32.0615 13.4101 32.4126 12.8921 32.9976 12.3741C33.6412 11.9712 34.2848 11.741 35.0454 11.741C35.3964 11.741 35.8059 11.9712 36.391 12.4892L37.2686 13.1799L37.6782 12.6043ZM33.6412 2.76259C34.6943 3.91367 35.5134 5.23741 36.0985 6.61871C36.508 7.53957 36.9176 9.03597 37.5026 11.1079L37.6196 11.4532L37.5026 11.3381C36.625 10.5899 35.8645 10.2446 35.1039 10.2446C33.9337 10.2446 32.8806 10.5899 32.003 11.2806C31.0084 12.0288 30.5404 13.0072 30.5404 14.1583C30.5404 17.036 32.2956 18.9928 35.7474 20.1439L35.8645 20.2014H39.3163V11.8561L39.0823 10.8201C38.4972 8.63309 38.0292 7.07914 37.6196 6.10072C36.9761 4.60432 36.0985 3.16547 34.9284 1.84173L33.6412 2.76259ZM42.0076 3.74101L41.8906 7.19424L43.4703 7.2518L43.5873 3.85612L42.0076 3.74101ZM16.5573 13.295C16.9084 15.7122 17.2594 17.4388 17.7275 18.4173C18.5465 20.0863 19.7752 20.9496 21.5889 20.9496C23.3441 20.9496 24.6897 20.1439 25.6258 18.5899C26.2109 17.6691 26.796 16 27.381 13.6978L27.8491 12.0288L26.3279 11.6259L25.8599 13.295C25.3333 15.4245 24.8067 16.9209 24.3387 17.7266C23.6366 18.8201 22.759 19.3957 21.5889 19.3957C20.4773 19.3957 19.6582 18.8201 19.1901 17.6691C18.7806 16.8633 18.4295 15.3094 18.137 13.1223L17.786 10.7626L16.2648 11.0504L16.5573 13.295ZM10.4727 3.28058C9.41954 4.02878 8.48344 5.35252 7.66435 7.30935C7.13779 8.46043 6.49422 10.3597 5.67513 13.0072C5.26558 14.446 4.85604 15.7122 4.44649 16.7482L3.27636 9.78417C2.45727 4.66187 1.87221 1.43885 1.52117 0L0 0.28777C0.292532 1.72662 0.877597 4.94964 1.69669 10.0144C2.51578 15.0791 3.10084 18.1871 3.39337 19.4532L3.86143 21.3525L4.85604 19.6835C5.4411 18.705 6.26019 16.6331 7.2548 13.4101C8.54194 9.09353 9.71207 6.33094 10.7067 5.17986C11.7598 8 12.2864 12.6619 12.2864 19.2806H13.866C13.866 11.2806 13.1054 5.98561 11.6428 3.51079L11.1747 2.76259L10.4727 3.28058ZM110.987 14.2734L108.646 13.813C108.939 12.777 109.29 11.741 109.583 10.7626C109.992 11.741 110.402 12.9496 110.987 14.2734ZM98.6419 10.4748V12.2014C97.7643 12.1439 96.5942 12.0288 95.1315 11.6835L93.4348 11.3381C94.0199 10.9353 94.8975 10.6475 96.1261 10.4748H98.6419ZM95.9506 8.97842C92.6742 9.43885 91.036 10.7626 91.036 12.8345C91.036 15.1367 92.3232 16.7482 94.8975 17.6691C96.3601 18.1871 98.7004 18.5899 101.918 18.8201L102.035 17.2662C98.9929 17.0935 96.7697 16.7482 95.424 16.2302C93.5518 15.5396 92.6157 14.446 92.6157 12.8345C92.6157 12.3165 92.8497 11.8561 93.3178 11.4532L93.0838 12.8345L94.839 13.2374C96.6527 13.6403 98.2323 13.813 99.461 13.813H100.28V8.92086H96.0091L95.9506 8.97842ZM78.9837 22.2734C81.558 22.2734 83.6642 21.7554 85.3609 20.777C87.2916 19.6259 88.2862 18.0719 88.2862 16.0576C88.2862 14.1007 88.0522 11.741 87.4671 8.97842C86.9406 6.21583 86.7066 3.91367 86.7066 2.18705H85.1269C85.1269 4.08633 85.3609 6.38849 85.946 9.26619C86.4725 12.0288 86.7066 14.3309 86.7066 16.0576C86.7066 17.554 85.8875 18.705 84.2493 19.5683C82.7866 20.3165 81.0314 20.7194 78.9837 20.7194C77.7551 20.7194 76.5849 20.259 75.6488 19.2806C74.8298 18.4748 74.2447 17.4964 73.8351 16.2302L72.314 16.6906C72.8405 18.3597 73.7181 19.741 74.9468 20.7194C76.1754 21.7554 77.5211 22.2734 78.9837 22.2734ZM65.4687 13.9856C64.1231 10.9353 61.3733 9.3813 57.1023 9.3813C55.3471 9.3813 54.294 10.5899 53.8844 12.9496L51.8952 12.6043L51.6027 14.1007L53.7674 14.5036L53.7089 14.7338L53.3579 17.036V21.7554H54.1185L54.7035 21.8705C55.1131 22.0432 55.5226 22.1583 55.8152 22.1583C57.0438 22.1583 58.5065 21.5827 60.0861 20.4317L61.3148 19.5683L60.4957 18.3022L59.15 19.2806C57.8044 20.259 56.7513 20.7194 55.8152 20.7194L55.2886 20.5468L54.9376 20.4317V17.3813L55.2886 15.0216V14.8489L62.7189 15.5396L64.2986 15.6547C64.6496 15.6547 64.8837 15.5396 65.1177 15.2518H65.9368L65.4687 13.9856ZM62.7774 13.813L55.4641 13.1799C55.6981 11.6835 56.2832 10.8777 57.1023 10.8777C60.2616 10.8777 62.4264 11.8561 63.5965 13.8705L62.7774 13.813ZM156.271 12.8921C156.739 12.6043 157.616 12.2014 158.904 11.7986L159.547 11.5683L159.021 10.1295L158.377 10.3597C156.914 10.8201 155.92 11.3381 155.276 11.741C154.223 12.4892 153.696 13.4101 153.696 14.5036C153.696 16.2878 154.516 17.6691 156.271 18.705C157.792 19.6259 159.606 20.0863 161.712 20.0863V18.5324C160.015 18.5324 158.552 18.1871 157.382 17.554C155.978 16.8058 155.335 15.8273 155.335 14.5036C155.276 13.8705 155.569 13.3525 156.271 12.8921ZM135.676 22.964L136.847 24C138.777 21.9281 140.123 20.7194 141.001 20.4892C141.527 20.3165 141.937 20.0288 142.229 19.5108C142.58 18.9928 143.341 17.4964 144.569 15.0216L145.155 13.9281H143.867C141.118 13.9281 138.894 13.6978 137.198 13.1223C138.426 11.9137 140.24 11.3381 142.58 11.3381L144.043 11.4532L145.155 11.6259L145.272 10.0719L144.277 9.95683L142.522 9.78417C139.245 9.78417 136.788 10.8777 135.15 13.0072L134.506 13.813L135.501 14.2158C137.607 15.0216 140.006 15.482 142.522 15.482C141.41 17.7266 140.708 18.8777 140.474 18.9928C139.421 19.2806 137.841 20.6043 135.676 22.964ZM116.662 22.2734L115.667 20.259L113.62 16.1151L118.534 16.3453V14.7914L112.917 14.5036C111.864 12.0863 111.045 9.95683 110.519 8.17266L109.934 5.98561L109.056 8.05755C108.295 9.78417 107.71 11.6259 107.242 13.4676L105.37 13.0072L104.961 14.5036L106.891 14.964C106.423 16.8633 106.131 18.8777 105.955 20.8921L107.535 21.0072C107.71 18.9928 108.003 17.0935 108.412 15.3094L111.689 15.8849L111.864 15.9424C112.566 17.4388 113.386 19.1655 114.322 21.0072L115.375 23.0216L116.662 22.2734ZM120.816 11.1655C121.869 11.6259 122.571 12.4317 122.981 13.5827C123.215 14.2734 123.449 15.5396 123.624 17.3237C123.8 18.9353 123.917 20.0863 124.034 20.7194L124.619 23.482L125.555 20.8345C126.14 19.2806 127.018 17.2086 128.246 14.7338L128.773 13.6403L129.475 13.295C130.06 14.7338 130.645 16.8058 131.171 19.5108L131.64 21.9281L133.161 21.5827L132.693 19.1655C132.049 16.1727 131.405 13.7554 130.586 11.8561L130.294 11.1079L127.603 12.4317L126.842 13.9856L125.262 17.3813L125.204 17.0935C125.028 15.0791 124.794 13.6978 124.443 12.777C123.858 11.3381 122.864 10.3022 121.459 9.66906L120.816 11.1655ZM173.764 12.6619C173.94 13.4101 173.998 14.5612 173.998 16.1727V16.8633L173.764 17.3237L173.472 17.6691C169.844 17.2086 167.972 16 167.972 13.9281C167.972 12.7194 168.557 11.6259 169.786 10.8777C170.605 10.3597 171.307 10.2446 171.892 10.4748C172.828 10.8201 173.472 11.5683 173.764 12.6619ZM172.594 8.97842C171.424 8.46043 170.195 8.63309 168.967 9.43885C167.27 10.5324 166.392 12.0288 166.392 13.813C166.392 16.8633 168.85 18.705 173.881 19.223L174.642 19.2806L174.759 18.5324L174.993 18.1295C175.402 17.6691 175.636 17.1511 175.636 16.7482V16.4029C175.636 14.3885 175.519 12.9496 175.285 12.0863C174.817 10.6475 173.881 9.61151 172.594 8.97842Z" fill="#282828"/>
</g>
<defs>
<clipPath id="clip0">
<rect width="175.636" height="24" fill="white"/>
</clipPath>
</defs>
</svg>
